dist/images/svg/user.svg

<svg width="50" height="50" viewBox="0 0 50 50" fill="none" xmlns="http://www.w3.org/2000/svg"><path d="M7.93392 6.56377C7.50809 6.46094 7.06538 6.50172 6.67159 6.67174C6.56654 6.54388 6.44562 6.42896 6.31134 6.33014L23.5361 2.17224C23.5368 2.17207 23.5375 2.1719 23.5382 2.17173C24.4974 1.94281 25.5117 1.94276 26.4709 2.17158C26.4719 2.1718 26.4728 2.17202 26.4737 2.17224L43.3386 6.25644L35.6364 8.11643C35.0427 8.25979 34.5471 8.66657 34.2907 9.22089C34.0343 9.7752 34.0452 10.4163 34.3203 10.9616C35.0445 12.3966 35.4697 13.9649 35.4697 15.6267C35.4697 21.4305 30.7785 26.1261 25 26.1261C19.2215 26.1261 14.5303 21.4305 14.5303 15.6267C14.5303 13.9708 14.9623 12.3998 15.6839 10.9533C15.9558 10.4082 15.9644 9.76893 15.7074 9.21668C15.4504 8.66443 14.9557 8.25941 14.3636 8.11643L7.93392 6.56377ZM6.15716 15.3583C6.20473 15.3296 6.25084 15.2992 6.29541 15.2671C6.33999 15.2992 6.38609 15.3296 6.43366 15.3583C6.51972 15.41 6.57304 15.4691 6.60069 15.5141C6.62435 15.5526 6.63349 15.5857 6.63349 15.6267C6.63349 15.6622 6.62611 15.691 6.60518 15.7267C6.58054 15.7687 6.5311 15.8277 6.44683 15.8836C6.39428 15.9184 6.34378 15.9555 6.29541 15.9945C6.24704 15.9555 6.19655 15.9184 6.14399 15.8836C6.05973 15.8277 6.01028 15.7687 5.98564 15.7267C5.96472 15.691 5.95734 15.6622 5.95734 15.6267C5.95734 15.5857 5.96647 15.5526 5.99013 15.5141C6.01778 15.4691 6.07111 15.41 6.15716 15.3583ZM5.7385 23.0012L6.29541 20.7719L6.85232 23.0012H5.7385ZM7.98355 37.206C9.79013 35.3839 12.4923 34.022 16.0042 33.2687L16.0065 33.2683C16.0475 33.2623 16.1089 33.2532 16.189 33.2417C16.3491 33.2186 16.5835 33.1855 16.8766 33.146C17.4632 33.0668 18.2818 32.9621 19.2083 32.8606C21.0894 32.6545 23.3126 32.4729 24.9451 32.5178C26.6478 32.5645 28.9119 32.7561 30.7838 32.941C31.7126 33.0327 32.532 33.1214 33.1189 33.1872C33.4123 33.2201 33.6472 33.2472 33.8082 33.266L33.9923 33.2877L34.0138 33.2903C40.4805 34.3527 44.822 38.5826 44.822 44.3753V45.3127C44.822 46.8004 43.6185 48 42.1459 48H7.85413C6.38155 48 5.17798 46.8004 5.17798 45.3127V44.3753C5.17798 41.3539 6.20369 39.0011 7.98355 37.206Z" fill="#FDE5D2" stroke="black" stroke-width="4" stroke-linejoin="round"/></svg>

<svg width="50" height="50" fill="none" xmlns="http://www.w3.org/2000/svg"><path d="M7.934 6.564a2 2 0 0 0-1.262.108 2.003 2.003 0 0 0-.36-.342l17.224-4.158h.002a6.349 6.349 0 0 1 2.933 0h.003l16.865 4.084-7.703 1.86a2 2 0 0 0-1.316 2.846c.724 1.435 1.15 3.003 1.15 4.665 0 5.803-4.691 10.5-10.47 10.5-5.779 0-10.47-4.697-10.47-10.5 0-1.656.432-3.227 1.154-4.674a2 2 0 0 0-1.32-2.837l-6.43-1.552Zm-1.777 8.794c.048-.028.094-.059.138-.09.045.031.091.062.139.09a.5.5 0 0 1 .167.156.2.2 0 0 1 .004.213.507.507 0 0 1-.158.157 2.005 2.005 0 0 0-.152.11 2.003 2.003 0 0 0-.151-.11.507.507 0 0 1-.158-.157.2.2 0 0 1 .004-.213.493.493 0 0 1 .167-.156Zm-.418 7.643.556-2.23.557 2.23H5.738Zm2.245 14.205c1.806-1.822 4.508-3.184 8.02-3.937h.002l.183-.027.688-.096c.586-.08 1.405-.184 2.331-.285 1.881-.206 4.105-.388 5.737-.343 1.703.047 3.967.238 5.839.423a179.92 179.92 0 0 1 3.024.325l.184.022.022.002c6.466 1.063 10.808 5.293 10.808 11.085v.938A2.683 2.683 0 0 1 42.146 48H7.854a2.683 2.683 0 0 1-2.676-2.687v-.938c0-3.021 1.026-5.374 2.806-7.169Z" fill="#FDE5D2" stroke="#000" stroke-width="4" stroke-linejoin="round"/></svg>
